X:1
T:Title
%%score { ( 1 3 ) | ( 2 4 ) }
L:1/8
M:4/8
K:F
V:1 treble nm="Grand Piano"
V:3 treble 
V:2 bass 
V:4 bass 
V:1
 z2 z[Q:1/4=85] F/G/ | AAA[Bd] | [Ac]2 AF | G>FGG | A3 F/G/ | AAA[Bd] | [Ac]2 AF | G>F[EG][EG] | %8
[M:3/8] F3 |[M:1/8] [Ac] |[M:2/4] [Bd]>[Bd] [Bf]>[Bd] |[M:3/8] [Ac] [FA]2 |[M:1/8] [Ac] | %13
[M:2/4] [Bd]>[Bd] [Bf]>[Bd] |[M:3/8] [Ac] A2 |[M:1/8] C |[M:2/4] FG AF | G4 | GA BG | A4 | %20
 dd [Ge][Ge] |[M:9/16] [Af]3 [Be]3/2 |[M:3/8] [Af]3 |] %23
V:2
 z2 z [F,A,C]/[F,B,E]/ | [F,CF][F,CF][F,CF][F,B,] | [F,C]2 [F,CF][F,C] | %3
 [C,G,C]>[C,G,C][C,G,C][C,G,C] | [F,CF]3 [F,A,C]/[F,B,E]/ | [F,CF][F,CF][F,CF][F,D] | %6
 [F,C]2 [F,CF][F,C] | [E,B,C]>[F,A,C][C,C][C,C] |[M:3/8] [F,C]3 |[M:1/8] [F,C] | %10
[M:2/4] [B,,B,]>[B,,B,] [B,,B,]>[B,,B,] |[M:3/8] [F,C] [F,C]2 |[M:1/8] [F,C] | %13
[M:2/4] [B,,B,]>[B,,B,] [B,,B,]>[B,,B,] |[M:3/8] [F,C] [F,CF]2 |[M:1/8] z | %16
[M:2/4] A,[K:treble]C FC | E4[K:bass] | CF GE | F4[K:bass] | [F,B,F][F,B,F] [C,C][C,C] | %21
[M:9/16] [F,C]3 [C,G,]3/2 |[M:3/8] [F,A,]3 |] %23
V:3
 x4 | x4 | x4 | x4 | x4 | x4 | x4 | x4 |[M:3/8] x3 |[M:1/8] x |[M:2/4] x4 |[M:3/8] x3 |[M:1/8] x | %13
[M:2/4] x4 |[M:3/8] x3 |[M:1/8] x |[M:2/4] x4 | z C CC | x4 | z C Cc | x4 |[M:9/16] x9/2 | %22
[M:3/8] x3 |] %23
V:4
 x4 | x4 | x4 | x4 | x4 | x4 | x4 | x4 |[M:3/8] x3 |[M:1/8] x |[M:2/4] x4 |[M:3/8] x3 |[M:1/8] x | %13
[M:2/4] x4 |[M:3/8] x3 |[M:1/8] x |[M:2/4] x[K:treble] x3 | z[K:bass] C, .C,2 | x4 | %19
 z[K:bass] F, F,[F,A,F] | x4 |[M:9/16] x9/2 |[M:3/8] x3 |] %23

